assets/emojis/SmilingFacewithHalo.svg

<svg width="140" height="137" viewBox="0 0 140 137" fill="none" xmlns="http://www.w3.org/2000/svg">
<circle cx="70.3496" cy="74.3496" r="62.3496" fill="#F9B42F"/>
<path opacity="0.3" fill-rule="evenodd" clip-rule="evenodd" d="M121.285 110.521C109.964 122.112 94.1615 129.308 76.6786 129.308C42.2439 129.308 14.329 101.393 14.329 66.9582C14.329 53.5625 18.5535 41.1535 25.7429 30.9907C14.7651 42.2299 8 57.6016 8 74.5535C8 108.988 35.9149 136.903 70.3496 136.903C91.3887 136.903 109.994 126.482 121.285 110.521Z" fill="#BC8417"/>
<path d="M72.5477 96.6079C65.2032 96.6079 58.9206 94.0594 56.9208 90.2545C56.7231 89.8484 56.6881 89.3821 56.823 88.9511C56.9579 88.5201 57.2524 88.157 57.6464 87.9361C57.8518 87.8247 58.0773 87.755 58.3098 87.7312C58.5423 87.7074 58.7772 87.7298 59.001 87.7973C59.2248 87.8648 59.433 87.9759 59.6136 88.1242C59.7942 88.2726 59.9436 88.4553 60.0532 88.6617C61.1859 90.8385 65.9642 93.1392 72.5477 93.1392C79.1311 93.1392 84.2103 90.75 85.1483 88.4316C85.2366 88.2155 85.3666 88.0189 85.5309 87.853C85.6952 87.6871 85.8906 87.5552 86.1059 87.4648C86.3211 87.3744 86.5521 87.3273 86.7856 87.3262C87.0191 87.3251 87.2505 87.3699 87.4666 87.4583C87.6828 87.5466 87.8794 87.6766 88.0453 87.8409C88.2112 88.0052 88.3431 88.2006 88.4335 88.4159C88.5238 88.6311 88.5709 88.8621 88.5721 89.0956C88.5732 89.3291 88.5283 89.5605 88.44 89.7766C86.7587 93.7763 80.2284 96.6079 72.5477 96.6079Z" fill="#2C2A46"/>
<path d="M54.0386 73.4002C53.322 73.4002 52.6348 73.1197 52.1281 72.6205C51.6214 72.1212 51.3368 71.4441 51.3368 70.7381C51.3368 69.8343 50.9724 68.9676 50.3239 68.3286C49.6753 67.6896 48.7957 67.3306 47.8785 67.3306C46.9613 67.3306 46.0816 67.6896 45.4331 68.3286C44.7845 68.9676 44.4202 69.8343 44.4202 70.7381C44.4202 71.4441 44.1355 72.1212 43.6288 72.6205C43.1222 73.1197 42.435 73.4002 41.7184 73.4002C41.0018 73.4002 40.3146 73.1197 39.8079 72.6205C39.3013 72.1212 39.0166 71.4441 39.0166 70.7381C39.0166 68.4223 39.9503 66.2013 41.6122 64.5638C43.2741 62.9263 45.5282 62.0063 47.8785 62.0063C50.2288 62.0063 52.4828 62.9263 54.1448 64.5638C55.8067 66.2013 56.7403 68.4223 56.7403 70.7381C56.7403 71.4441 56.4557 72.1212 55.949 72.6205C55.4423 73.1197 54.7551 73.4002 54.0386 73.4002Z" fill="#2C2A46"/>
<path d="M102.146 73.4002C101.429 73.4002 100.742 73.1197 100.236 72.6205C99.7288 72.1212 99.4442 71.4441 99.4442 70.7381C99.4442 69.8343 99.0798 68.9676 98.4313 68.3286C97.7827 67.6896 96.9031 67.3306 95.9859 67.3306C95.0687 67.3306 94.1891 67.6896 93.5405 68.3286C92.892 68.9676 92.5276 69.8343 92.5276 70.7381C92.5276 71.4441 92.2429 72.1212 91.7363 72.6205C91.2296 73.1197 90.5424 73.4002 89.8258 73.4002C89.1093 73.4002 88.422 73.1197 87.9154 72.6205C87.4087 72.1212 87.124 71.4441 87.124 70.7381C87.124 68.4223 88.0577 66.2013 89.7196 64.5638C91.3815 62.9263 93.6356 62.0063 95.9859 62.0063C98.3362 62.0063 100.59 62.9263 102.252 64.5638C103.914 66.2013 104.848 68.4223 104.848 70.7381C104.848 71.4441 104.563 72.1212 104.056 72.6205C103.55 73.1197 102.863 73.4002 102.146 73.4002Z" fill="#2C2A46"/>
<path d="M69.8768 0C45.7038 0 0 4.53455 0 21.6775C0 38.8205 45.6711 43.3713 69.8768 43.3713C94.0825 43.3713 139.754 38.8368 139.754 21.6775C139.754 4.51824 94.0499 0 69.8768 0ZM69.8768 34.6284C29.409 34.6284 8.53068 25.5596 8.53068 21.6775C8.53068 20.6499 10.064 19.2471 13 17.7465C24.0263 7.84565 53.1253 4.92599 70.0889 4.92599C87.4602 4.92599 117.391 7.94351 127.944 18.35H127.83C130.016 19.6223 131.174 20.7967 131.174 21.6122C131.223 25.5595 110.345 34.6284 69.8768 34.6284Z" fill="#55CFFF"/>
<path d="M127.879 18.3508H128.059C117.571 7.94428 87.5745 4.92676 70.2031 4.92676C53.1906 4.92676 24.0916 7.84642 13.1143 17.7473C21.2698 13.6206 40.2886 8.72727 69.9911 8.72727C101.047 8.72727 120.523 14.1099 127.879 18.3508Z" fill="#2FC4FF"/>
</svg>

<svg xmlns="http://www.w3.org/2000/svg" width="140" height="137" fill="none" viewBox="0 0 140 137"><circle cx="70.35" cy="74.35" r="62.35" fill="#f9b42f"/><path fill="#bc8417" fill-rule="evenodd" d="M121.285 110.521c-11.321 11.591-27.123 18.787-44.606 18.787-34.435 0-62.35-27.915-62.35-62.35 0-13.395 4.224-25.804 11.414-35.967C14.765 42.23 8 57.6 8 74.554c0 34.434 27.915 62.349 62.35 62.349 21.039 0 39.644-10.421 50.935-26.382" clip-rule="evenodd" opacity=".3"/><path fill="#2c2a46" d="M72.548 96.608c-7.345 0-13.627-2.549-15.627-6.354a1.77 1.77 0 0 1 .725-2.318 1.77 1.77 0 0 1 2.407.726c1.133 2.176 5.911 4.477 12.495 4.477s11.662-2.389 12.6-4.707a1.778 1.778 0 0 1 3.292 1.345c-1.681 4-8.212 6.83-15.892 6.83M54.039 73.4c-.717 0-1.404-.28-1.91-.78a2.64 2.64 0 0 1-.792-1.882c0-.904-.365-1.77-1.013-2.41a3.5 3.5 0 0 0-2.445-.997c-.918 0-1.797.359-2.446.998a3.38 3.38 0 0 0-1.013 2.41c0 .705-.285 1.382-.791 1.882a2.72 2.72 0 0 1-1.91.78 2.73 2.73 0 0 1-1.911-.78 2.64 2.64 0 0 1-.791-1.883c0-2.316.933-4.537 2.595-6.174a8.93 8.93 0 0 1 6.267-2.558c2.35 0 4.604.92 6.266 2.558a8.67 8.67 0 0 1 2.595 6.174c0 .706-.284 1.383-.791 1.883a2.72 2.72 0 0 1-1.91.78m48.107-.001a2.72 2.72 0 0 1-1.91-.78 2.64 2.64 0 0 1-.792-1.882c0-.904-.364-1.77-1.013-2.41a3.5 3.5 0 0 0-2.445-.997c-.917 0-1.797.359-2.446.998a3.38 3.38 0 0 0-1.012 2.41c0 .705-.285 1.382-.792 1.882a2.72 2.72 0 0 1-1.91.78 2.72 2.72 0 0 1-1.91-.78 2.64 2.64 0 0 1-.792-1.883c0-2.316.934-4.537 2.596-6.174a8.93 8.93 0 0 1 6.266-2.558c2.35 0 4.604.92 6.266 2.558a8.67 8.67 0 0 1 2.596 6.174c0 .706-.285 1.383-.792 1.883a2.72 2.72 0 0 1-1.91.78"/><path fill="#55cfff" d="M69.877 0C45.704 0 0 4.535 0 21.678S45.671 43.37 69.877 43.37s69.877-4.534 69.877-21.694C139.754 4.518 94.05 0 69.877 0m0 34.628c-40.468 0-61.346-9.068-61.346-12.95 0-1.028 1.533-2.43 4.469-3.931C24.026 7.846 53.125 4.926 70.089 4.926c17.371 0 47.302 3.018 57.855 13.424h-.114c2.186 1.272 3.344 2.447 3.344 3.262.049 3.948-20.829 13.016-61.297 13.016"/><path fill="#2fc4ff" d="M127.879 18.35h.18C117.571 7.945 87.575 4.928 70.203 4.928c-17.012 0-46.111 2.92-57.089 12.82 8.156-4.126 27.175-9.02 56.877-9.02 31.056 0 50.532 5.383 57.888 9.624"/></svg>
